X: 39344
T: Tam Lin
R: reel
M: 4/4
K: Dminor
|:A,D D/D/D CDEC|B,/B,/B, DB, FB,D=B,|C/C/C EC GCEE|FcAF E/E/E CD|
A,D D/D/D CDEC|B,/B,/B, DB, FB,D=B,|C/C/C EC GCEE|F/E/E DC CDDD:|
|:dA A/A/A FAFD|dAAA FDDA|cG E/E/E cG E/E/E|cG E/E/E dEcE|
dA A/A/A FADA|dA A/A/A FDDA,|B,/B,/B, B,C DCDE|FcAF EDCD:|

